dist/img/icons/coffee_beans_hor.svg

<svg width="35" height="35" viewBox="0 0 35 35" fill="none" xmlns="http://www.w3.org/2000/svg">
<g clip-path="url(#clip0_4_262)">
<path d="M34.9459 26.9849C34.3996 31.5459 28.9029 34.985 22.1601 34.985C16.0981 34.985 10.9486 32.1874 9.63568 28.1815L9.63454 28.1795C9.42907 27.5611 9.32306 26.9145 9.32021 26.263C9.32334 26.0667 9.33702 25.8709 9.36124 25.6763L9.36808 25.6141V25.6139C9.60689 23.8875 10.4621 22.3061 11.7764 21.1614C10.28 21.82 8.66761 22.1736 7.03299 22.2024C5.67593 22.2278 4.33654 21.8915 3.15246 21.2284L3.15189 21.2275C2.69736 20.9693 2.27844 20.653 1.90598 20.2862C1.62585 20.001 1.37564 19.6881 1.15849 19.3524L1.15791 19.3515C-1.30371 15.6474 0.271355 9.42236 4.82214 4.87185C9.03609 0.657908 14.8297 -1.05623 18.5993 0.796691C19.2055 1.08993 19.7592 1.48092 20.2382 1.95398C20.4129 2.13295 20.5759 2.32274 20.7267 2.52251L20.727 2.52279C23.5311 6.13373 22.0347 12.6554 17.3201 17.3701C16.8541 17.8346 16.364 18.2743 15.8522 18.6875C17.8664 17.9212 20.0048 17.5325 22.1601 17.541C28.1802 17.541 33.4591 20.4327 34.7122 24.4167C34.9014 25.0137 34.9986 25.6364 35 26.263C34.9966 26.5044 34.9786 26.7452 34.9461 26.9846L34.9459 26.9849ZM22.1601 33.8178C27.8374 33.8178 32.6834 31.1222 33.6481 27.5608C33.625 27.5631 33.6013 27.5657 33.5788 27.5679C33.3702 27.5916 33.1716 27.6175 32.9861 27.6472C32.959 27.6514 32.9339 27.6563 32.9071 27.6608C32.7339 27.6896 32.5686 27.7207 32.4093 27.7537C32.3828 27.7592 32.3551 27.7643 32.3286 27.77C32.1582 27.8065 31.9938 27.8447 31.8322 27.8843C31.7972 27.8928 31.7624 27.9017 31.7279 27.9102C31.5723 27.9492 31.4184 27.9886 31.2631 28.029C29.7584 28.4559 28.199 28.6585 26.6354 28.6301C25.0734 28.6588 23.5157 28.4556 22.0133 28.0276C20.6073 27.6238 19.1485 27.4334 17.686 27.4628C16.2229 27.4334 14.7635 27.6238 13.3569 28.0273C13.2107 28.0652 13.0625 28.1034 12.9121 28.1413C12.8773 28.1502 12.8425 28.1587 12.8075 28.1675C12.6479 28.2071 12.484 28.2459 12.3136 28.2832C12.2928 28.2878 12.2706 28.2921 12.2495 28.2966C12.0919 28.3303 11.9275 28.3625 11.7559 28.393C11.7254 28.3984 11.6963 28.4041 11.6656 28.4092C11.4795 28.4411 11.2828 28.4699 11.0751 28.4961C11.0566 28.4987 11.0412 28.5018 11.0224 28.5041C12.5308 31.6217 17.0516 33.8178 22.1601 33.8178ZM5.64743 5.69743C1.82391 9.52124 0.22319 14.7531 1.75351 18.0329C1.76919 18.0147 1.78515 17.9964 1.80025 17.9782C1.95499 17.7961 2.09834 17.6203 2.22601 17.4533C2.2374 17.4385 2.24709 17.4245 2.25821 17.41C2.37989 17.2492 2.49104 17.0942 2.59505 16.9432C2.61186 16.9187 2.62953 16.8936 2.64606 16.8694C2.75207 16.7129 2.85125 16.5599 2.94671 16.4083C2.96495 16.3792 2.9829 16.3504 3.00114 16.3214C3.09319 16.1737 3.18324 16.0267 3.27358 15.8782C4.05527 14.5246 5.03302 13.2943 6.17464 12.2271C7.27522 11.1194 8.53453 10.1812 9.91068 9.44373C11.2005 8.75494 12.3794 7.87693 13.4085 6.83848C14.478 5.84163 15.3922 4.69004 16.1206 3.42246C16.1947 3.30021 16.2702 3.17653 16.3472 3.05199L16.4061 2.9571C16.4888 2.8243 16.574 2.68979 16.6652 2.55158C16.6752 2.53619 16.6863 2.52023 16.6965 2.50484C16.7789 2.38059 16.8667 2.25321 16.9599 2.1224C16.9815 2.09219 17.0023 2.06227 17.0245 2.03149C17.1286 1.88787 17.2397 1.73996 17.3605 1.58665C17.3685 1.5761 17.3751 1.5667 17.3833 1.55644C14.0483 0.434486 9.25751 2.08706 5.64743 5.69743ZM19.4129 2.77927C19.1325 2.50142 18.8188 2.25919 18.4791 2.05857C18.4691 2.07025 18.4608 2.08136 18.4511 2.09305C18.3223 2.24979 18.2052 2.39968 18.0961 2.54502C18.0784 2.56867 18.0593 2.59318 18.0419 2.61655C17.9328 2.76474 17.8325 2.90808 17.7376 3.04829C17.7187 3.07622 17.6999 3.10386 17.6817 3.1315C17.5891 3.27057 17.5005 3.40764 17.4158 3.54329C17.4004 3.5678 17.3853 3.59231 17.3702 3.61682C17.2853 3.75389 17.2021 3.89011 17.1183 4.02832C16.338 5.38054 15.3617 6.60992 14.2212 7.67631C13.1207 8.78372 11.8613 9.72187 10.4852 10.4597C9.19539 11.1482 8.01644 12.0262 6.98739 13.0649C5.91645 14.0629 5.00082 15.2156 4.27071 16.4846C4.21058 16.5832 4.15017 16.6824 4.0889 16.7824C4.06809 16.8161 4.04643 16.8506 4.02535 16.8845C3.98232 16.9537 3.93928 17.023 3.89483 17.0931C3.86861 17.1344 3.84097 17.1763 3.81418 17.2179C3.77229 17.2831 3.72983 17.3484 3.68537 17.4151C3.65573 17.4595 3.62467 17.5051 3.59361 17.5505C3.54944 17.6154 3.50384 17.6813 3.45682 17.7479C3.42262 17.7961 3.38729 17.8451 3.35166 17.8944C3.30322 17.9608 3.25335 18.0284 3.20148 18.0968C3.16244 18.1483 3.12254 18.2008 3.0815 18.2535C3.02765 18.3227 2.97065 18.3937 2.9128 18.4652C2.86863 18.5199 2.82446 18.5747 2.77744 18.6308C2.71645 18.7043 2.65091 18.7801 2.58508 18.8562C2.53435 18.9146 2.48505 18.9725 2.43176 19.0323C2.41865 19.0471 2.40754 19.0608 2.39414 19.0756C2.49844 19.2107 2.61101 19.3395 2.73127 19.4609C2.91992 19.6479 3.12511 19.8177 3.34425 19.9685L3.36449 19.9462C3.40182 19.9038 3.43516 19.8636 3.47078 19.8223C3.53832 19.7439 3.60558 19.6661 3.6677 19.5909C3.70617 19.5441 3.74208 19.4991 3.77884 19.4535C3.8327 19.3863 3.88599 19.3196 3.93615 19.2546C3.97206 19.2082 4.00625 19.1628 4.04045 19.1173C4.0869 19.0554 4.13221 18.9941 4.17581 18.9337C4.20802 18.8896 4.23936 18.8457 4.26986 18.8021C4.3126 18.7414 4.35421 18.6812 4.39439 18.6217C4.42203 18.5809 4.44996 18.5402 4.47675 18.4997C4.5175 18.4379 4.5574 18.3766 4.59672 18.3156C4.62066 18.2786 4.64489 18.2412 4.66825 18.2042C4.71043 18.1378 4.75147 18.0717 4.79222 18.0058C4.8116 17.9748 4.83126 17.9434 4.85035 17.9121C4.9082 17.818 4.96577 17.724 5.02305 17.6297C5.80559 16.276 6.78363 15.0455 7.92553 13.978C9.02611 12.8703 10.2854 11.9321 11.6616 11.1946C12.9514 10.5061 14.1303 9.62782 15.1594 8.58937C16.2297 7.59167 17.1448 6.43951 17.8743 5.17136C17.9644 5.02346 18.0564 4.87356 18.1505 4.72196C18.1704 4.69004 18.1901 4.65812 18.2103 4.62592C18.3064 4.47317 18.4084 4.317 18.5164 4.15685C18.5389 4.12322 18.562 4.08959 18.5854 4.05568C18.6979 3.89182 18.819 3.72311 18.9518 3.54728C18.9741 3.51822 18.998 3.48801 19.0205 3.45866C19.1644 3.27143 19.3186 3.07878 19.4936 2.87417L19.4981 2.86847C19.4699 2.83769 19.4417 2.80805 19.4129 2.77927ZM16.4948 16.5448C20.5397 12.4995 22.0678 7.09695 20.2074 3.84109C20.1935 3.85819 20.1787 3.87558 20.165 3.89239C20.0396 4.04685 19.9225 4.19617 19.8156 4.34009C19.7954 4.36716 19.7771 4.39338 19.7575 4.42017C19.6611 4.55211 19.5705 4.68092 19.4856 4.80659C19.4705 4.82939 19.4543 4.85219 19.4394 4.8747C19.3457 5.0152 19.2573 5.15313 19.1716 5.2902C19.1527 5.32012 19.1345 5.34976 19.116 5.3794C19.0339 5.51191 18.953 5.64414 18.8718 5.77779C18.0904 7.13029 17.1132 8.36025 15.9721 9.4272C14.8715 10.5346 13.6122 11.4728 12.2361 12.2103C10.9463 12.8991 9.76734 13.7771 8.73829 14.8155C7.66706 15.8141 6.75086 16.9671 6.02018 18.2361C5.93041 18.3837 5.83865 18.5328 5.74489 18.6838C5.72295 18.7191 5.70129 18.7542 5.67878 18.7895C5.58103 18.9446 5.47816 19.103 5.36787 19.2657C5.34564 19.2985 5.32199 19.3321 5.29919 19.3655C5.18492 19.531 5.0638 19.7009 4.92844 19.879L4.91105 19.9029C4.77369 20.0828 4.6181 20.2731 4.45224 20.4695C4.43087 20.4945 4.4152 20.5168 4.39325 20.5424C7.7061 21.9134 12.7496 20.2891 16.4948 16.5448ZM22.1601 18.7083C16.4324 18.7083 11.5767 21.4333 10.6567 25.0317C10.6795 25.0291 10.7029 25.0268 10.7251 25.0245C10.9372 25.0009 11.1389 24.9747 11.327 24.9447C11.3521 24.9407 11.3755 24.9362 11.4003 24.9322C11.5732 24.9037 11.7382 24.8726 11.897 24.8399C11.9286 24.8333 11.9614 24.8273 11.9924 24.8205C12.1597 24.7849 12.3213 24.7472 12.48 24.7085C12.5216 24.6982 12.5635 24.688 12.6048 24.6774C12.7562 24.6395 12.9064 24.6013 13.0577 24.562C14.5623 24.1351 16.122 23.9325 17.686 23.961C19.2479 23.9322 20.8056 24.1351 22.308 24.5634C23.7141 24.967 25.1729 25.1573 26.6354 25.1283C28.0987 25.1573 29.5581 24.967 30.965 24.5637C31.1095 24.5261 31.2557 24.4885 31.4039 24.4512C31.4443 24.4409 31.4848 24.4309 31.5259 24.4207C31.6837 24.3816 31.8456 24.3434 32.0143 24.3067C32.0408 24.3007 32.0687 24.2953 32.0958 24.2896C32.2517 24.2565 32.4144 24.2249 32.584 24.195C32.6153 24.1895 32.6452 24.1836 32.6772 24.1781C32.8644 24.1465 33.063 24.118 33.2716 24.0918C33.2927 24.0892 33.3104 24.0858 33.3317 24.0833C31.855 20.9303 27.3185 18.7083 22.1601 18.7083ZM33.7179 25.2149L33.6959 25.2175C33.4702 25.2405 33.2619 25.2685 33.0633 25.2987C33.0351 25.3032 33.0052 25.3069 32.9772 25.3115C32.7857 25.3423 32.6056 25.3759 32.4315 25.4118C32.3965 25.4189 32.3611 25.4261 32.3266 25.4338C32.1585 25.4697 31.9958 25.507 31.8365 25.546C31.7997 25.5552 31.7635 25.5643 31.727 25.5734C31.5706 25.6127 31.4153 25.6526 31.2591 25.6934C29.7561 26.1211 28.1979 26.324 26.6354 26.2955C25.0734 26.3243 23.5157 26.1211 22.0133 25.6931C20.6073 25.2893 19.1485 25.0989 17.686 25.1283C16.2209 25.0992 14.7598 25.2893 13.3509 25.6919C13.2475 25.7187 13.1435 25.7455 13.0386 25.7723C12.9987 25.7826 12.9579 25.7925 12.9177 25.8025C12.8459 25.8208 12.7738 25.8387 12.7003 25.8564C12.6576 25.8666 12.6134 25.8769 12.5698 25.8872C12.4971 25.9043 12.4236 25.9211 12.3487 25.9376C12.3022 25.9479 12.2549 25.9578 12.2073 25.9678C12.1326 25.9838 12.0563 25.9991 11.9785 26.0143C11.9283 26.0239 11.8776 26.0336 11.8263 26.043C11.7459 26.0576 11.663 26.0718 11.5792 26.0855C11.5268 26.094 11.4746 26.1026 11.4208 26.1109C11.3301 26.1248 11.2355 26.1374 11.1398 26.1502C11.0882 26.157 11.0378 26.1642 10.9842 26.1704C10.8725 26.1838 10.7554 26.1958 10.6362 26.2075C10.5932 26.2115 10.553 26.2163 10.5088 26.2203L10.4878 26.2226C10.4875 26.236 10.4875 26.2496 10.4875 26.263C10.4886 26.6375 10.5331 27.0105 10.62 27.3747L10.6436 27.3719C10.8654 27.3488 11.07 27.3212 11.2655 27.2912C11.2957 27.2864 11.3273 27.2824 11.3569 27.2776C11.5453 27.2471 11.7228 27.2137 11.8941 27.1784C11.9312 27.171 11.9679 27.1633 12.0044 27.1556C12.1697 27.12 12.3304 27.0829 12.4874 27.0444C12.5253 27.035 12.563 27.0253 12.6006 27.0159C12.755 26.9772 12.9081 26.9379 13.0625 26.8977C14.5655 26.4696 16.1234 26.2667 17.686 26.2955C19.2479 26.2667 20.8056 26.4696 22.308 26.898C23.7141 27.3015 25.1729 27.4919 26.6354 27.4628C28.1002 27.4916 29.5612 27.3015 30.9699 26.8991C31.0756 26.8717 31.1819 26.8441 31.289 26.8167C31.3207 26.8088 31.3534 26.8008 31.3856 26.7925C31.4629 26.7731 31.5407 26.7538 31.6202 26.7344C31.6641 26.7238 31.7094 26.7136 31.7541 26.703C31.8242 26.6865 31.8949 26.6703 31.967 26.6543C32.0166 26.6432 32.0676 26.6327 32.1186 26.6218C32.189 26.607 32.2608 26.5925 32.3338 26.5782C32.3885 26.5674 32.4438 26.5571 32.5002 26.5469C32.5737 26.5335 32.6495 26.5207 32.7262 26.5078C32.7854 26.4981 32.8447 26.4882 32.9063 26.479C32.9852 26.4668 33.0679 26.4557 33.1508 26.4449C33.2146 26.4363 33.2776 26.4275 33.3437 26.4195C33.4352 26.4087 33.5315 26.399 33.6278 26.3893C33.6905 26.383 33.7507 26.3759 33.8159 26.3702L33.8307 26.3688C33.8319 26.3334 33.8327 26.2981 33.8327 26.263C33.8322 25.9105 33.7937 25.5591 33.7179 25.2149Z" fill="black"/>
<path d="M28.3117 30.1178C28.5516 29.9939 28.7796 29.8636 28.9956 29.7271C29.2683 29.5564 29.6277 29.6388 29.7989 29.9109C29.9702 30.1831 29.889 30.5427 29.6174 30.7149C29.3746 30.8679 29.1184 31.0144 28.8486 31.1546C28.5622 31.3028 28.2099 31.1908 28.0617 30.9047C27.9135 30.6183 28.0253 30.266 28.3117 30.1178Z" fill="black"/>
<path d="M14.5503 29.1678C16.3744 30.6394 19.1481 31.4832 22.16 31.4832C23.6823 31.4955 25.197 31.2678 26.6484 30.8084C26.9544 30.7092 27.283 30.8768 27.3828 31.1828C27.4825 31.4889 27.3155 31.8178 27.0097 31.9181C25.4418 32.4157 23.8052 32.6627 22.16 32.6505C18.8862 32.6505 15.8455 31.7123 13.8173 30.0763C13.5665 29.8737 13.5272 29.5063 13.7295 29.2556C13.9319 29.0045 14.2995 28.9652 14.5503 29.1678Z" fill="black"/>
<path d="M18.3106 9.21285C18.375 8.98288 18.4297 8.75575 18.4744 8.53176C18.5377 8.21572 18.8452 8.01082 19.1612 8.07409C19.4773 8.13735 19.6822 8.44484 19.6189 8.76088C19.5685 9.01252 19.5069 9.26785 19.4345 9.52747C19.3476 9.83781 19.0256 10.0188 18.7152 9.93213C18.4049 9.84522 18.2237 9.52319 18.3106 9.21285Z" fill="black"/>
<path d="M6.86674 19.2919C6.84679 18.9702 7.09159 18.6932 7.41333 18.6735C9.8134 18.5256 12.6606 17.0774 14.8438 14.8939C15.943 13.8081 16.8577 12.5502 17.5516 11.1698C17.6953 10.8817 18.0447 10.7643 18.333 10.9071C18.6214 11.0498 18.7397 11.3992 18.5975 11.6879C17.8472 13.182 16.858 14.5436 15.6691 15.7192C13.257 18.1315 10.1975 19.6715 7.48514 19.8385C7.47289 19.8394 7.46063 19.8397 7.44866 19.8397C7.1406 19.8391 6.88583 19.5994 6.86674 19.2919Z" fill="black"/>
</g>
<defs>
<clipPath id="clip0_4_262">
<rect width="35" height="35" fill="white" transform="matrix(-1 0 0 1 35 0)"/>
</clipPath>
</defs>
</svg>

<svg width="35" height="35" fill="none" xmlns="http://www.w3.org/2000/svg"><g clip-path="url(#clip0_4_262)" fill="#000"><path d="M34.946 26.985c-.546 4.56-6.043 8-12.786 8-6.062 0-11.211-2.798-12.524-6.803l-.001-.002a6.162 6.162 0 01-.315-1.917c.003-.196.017-.392.041-.587l.007-.062a7.215 7.215 0 012.408-4.453 12.313 12.313 0 01-4.743 1.041 7.65 7.65 0 01-3.88-.974h-.001a5.996 5.996 0 01-1.246-.942 5.923 5.923 0 01-.748-.934c-2.462-3.705-.887-9.93 3.664-14.48C9.036.658 14.83-1.056 18.6.797c.607.293 1.16.684 1.64 1.157.174.179.337.369.488.569 2.804 3.61 1.308 10.132-3.407 14.847a18.87 18.87 0 01-1.468 1.317 17.545 17.545 0 016.308-1.146c6.02 0 11.3 2.892 12.552 6.876.19.597.287 1.22.288 1.846a5.99 5.99 0 01-.054.722zM22.16 33.818c5.677 0 10.523-2.696 11.488-6.257l-.07.007c-.208.024-.406.05-.592.08-.027.003-.052.008-.079.013-.173.029-.338.06-.498.093l-.08.016c-.17.037-.335.075-.497.114l-.104.026-.465.119c-1.505.427-3.064.63-4.628.601a15.81 15.81 0 01-4.622-.602 14.613 14.613 0 00-4.327-.565 14.634 14.634 0 00-4.33.564l-.444.114-.105.027c-.16.04-.323.078-.493.115l-.065.014c-.157.033-.322.066-.493.096l-.09.016c-.187.032-.383.06-.59.087l-.054.008c1.509 3.118 6.03 5.314 11.138 5.314zM5.647 5.698C1.824 9.52.223 14.752 1.754 18.032l.046-.055c.155-.182.298-.358.426-.525l.032-.043c.122-.16.233-.316.337-.467l.051-.074c.106-.156.205-.31.3-.46l.055-.088c.092-.147.182-.294.273-.443a15.846 15.846 0 012.9-3.65 15.763 15.763 0 013.737-2.784 14.62 14.62 0 003.498-2.606 14.644 14.644 0 002.712-3.416l.226-.37.06-.095c.082-.133.167-.267.258-.405l.032-.047c.082-.124.17-.252.263-.383l.064-.09c.105-.144.216-.292.336-.445.009-.01.015-.02.023-.03-3.335-1.123-8.125.53-11.736 4.14zm13.766-2.919a4.782 4.782 0 00-.934-.72l-.028.034a13.02 13.02 0 00-.355.452l-.054.072c-.11.148-.21.291-.304.431l-.056.083a16.75 16.75 0 00-.312.486l-.252.411a15.817 15.817 0 01-2.897 3.648 15.78 15.78 0 01-3.736 2.784 14.604 14.604 0 00-3.498 2.605 14.684 14.684 0 00-2.716 3.42l-.182.297c-.02.034-.043.069-.064.102l-.13.21-.08.124a13.89 13.89 0 01-.902 1.247l-.136.166c-.06.073-.126.15-.192.225l-.153.176-.038.044a4.109 4.109 0 00.95.893l.02-.023c.038-.042.071-.082.107-.124.067-.078.135-.156.197-.231l.11-.138a13.942 13.942 0 00.398-.52 7.925 7.925 0 00.218-.311l.083-.122.12-.184.071-.112.124-.198.058-.094.173-.282a15.874 15.874 0 012.903-3.652 15.763 15.763 0 013.736-2.783 14.612 14.612 0 003.497-2.606 14.68 14.68 0 002.715-3.418c.09-.148.182-.297.277-.449l.06-.096a17.656 17.656 0 01.374-.57c.113-.164.234-.333.367-.509l.068-.088c.144-.188.299-.38.474-.585l.004-.006a2.794 2.794 0 00-.085-.089zm-2.918 13.766c4.045-4.046 5.573-9.448 3.712-12.704l-.042.051c-.125.155-.242.304-.35.448l-.058.08c-.096.132-.187.26-.271.387l-.047.068a15.9 15.9 0 00-.267.415c-.02.03-.038.06-.056.09l-.244.398a15.855 15.855 0 01-2.9 3.65 15.772 15.772 0 01-3.736 2.782 14.62 14.62 0 00-3.498 2.605 14.714 14.714 0 00-2.718 3.421c-.09.148-.181.297-.275.448l-.066.105c-.098.156-.2.314-.311.477l-.069.1c-.114.165-.235.335-.37.513l-.018.024c-.137.18-.293.37-.459.567-.021.024-.037.047-.059.072 3.313 1.371 8.357-.253 12.102-3.997zm5.665 2.163c-5.728 0-10.583 2.725-11.503 6.324l.068-.008c.212-.023.414-.05.602-.08.025-.003.049-.008.073-.012.173-.028.338-.06.497-.092l.095-.02c.168-.035.33-.073.488-.111l.125-.032c.151-.037.301-.076.453-.115a15.896 15.896 0 014.628-.601c1.562-.029 3.12.174 4.622.602a14.62 14.62 0 004.327.565 14.658 14.658 0 004.33-.564c.145-.038.29-.076.439-.113l.122-.03c.158-.04.32-.078.488-.114l.082-.017c.156-.034.318-.065.488-.095l.093-.017c.187-.032.386-.06.595-.086l.06-.009c-1.477-3.153-6.014-5.375-11.172-5.375zm11.558 6.507l-.022.003c-.226.023-.434.05-.633.08l-.086.014a12.569 12.569 0 00-.65.122 16.9 16.9 0 00-.49.112l-.11.027-.468.12a15.811 15.811 0 01-4.624.602 15.807 15.807 0 01-4.622-.602 14.613 14.613 0 00-4.327-.565 14.714 14.714 0 00-4.335.564l-.312.08-.121.03a6.942 6.942 0 01-.218.054l-.13.031-.221.05-.142.03c-.074.017-.15.032-.229.047l-.152.029c-.08.015-.163.029-.247.043l-.158.025c-.09.014-.185.026-.281.04l-.156.02c-.111.013-.229.025-.348.037l-.127.012-.021.003v.04c0 .374.045.747.132 1.112l.024-.003c.221-.023.426-.05.621-.08.03-.006.062-.01.092-.014a12.707 12.707 0 00.647-.122c.166-.036.326-.073.483-.112l.114-.028.461-.118a15.813 15.813 0 014.624-.602c1.562-.03 3.12.174 4.622.602a14.62 14.62 0 004.327.565 14.727 14.727 0 004.335-.564l.319-.082.097-.024.234-.059.134-.031.213-.049.152-.032a15.969 15.969 0 01.607-.114l.18-.029.245-.034.193-.026.284-.03.188-.019.015-.001.002-.106c0-.353-.04-.704-.115-1.048z"/><path d="M28.312 30.118c.24-.124.468-.254.684-.39a.583.583 0 01.621.987c-.242.153-.499.3-.768.44a.584.584 0 01-.537-1.037zm-13.762-.95c1.824 1.471 4.598 2.315 7.61 2.315a14.486 14.486 0 004.488-.675.583.583 0 01.362 1.11 15.648 15.648 0 01-4.85.733c-3.274 0-6.315-.939-8.343-2.575a.584.584 0 01.733-.908zm3.76-19.955c.065-.23.12-.457.164-.681a.584.584 0 011.145.229c-.05.252-.112.507-.184.766a.584.584 0 01-1.124-.314zM6.867 19.292a.583.583 0 01.546-.619c2.4-.147 5.248-1.596 7.43-3.78a14.198 14.198 0 002.709-3.723.584.584 0 011.046.518 15.37 15.37 0 01-2.929 4.031c-2.412 2.412-5.472 3.953-8.184 4.12a.584.584 0 01-.618-.547z"/></g><defs><clipPath id="clip0_4_262"><path fill="#fff" transform="matrix(-1 0 0 1 35 0)" d="M0 0h35v35H0z"/></clipPath></defs></svg>
